modules/icons/edit-user-page.svg

<?xml version="1.0" encoding="UTF-8"?>
<svg xmlns="http://www.w3.org/2000/svg" width="30" height="30" viewBox="0 0 30 30">
	<title>
		edit user page
	</title>
	<path d="m6 4.5c-1.66 0-3 1.34-3 3v19.5c0 1.66 1.34 3 3 3h13.5c1.66 0 3-1.34 3-3v-19.5c0-1.66-1.34-3-3-3zm7 6.84a3.33 3.33 0 1 1 0 6.66 3.33 3.33 0 0 1 0-6.66zm0 7.66c3.94 0 6 2.34 6 3.68v0.66h-12v-0.66c0-1.35 2.06-3.68 6-3.68z"/>
	<path d="m10.5 6.4e-7a3 3 0 0 0-3 3h13.5a3 3 0 0 1 3 3v18a3 3 0 0 0 3-3v-18a3 3 0 0 0-3-3z"/>
</svg>

<?xml version="1.0" encoding="UTF-8"?>
<svg xmlns="http://www.w3.org/2000/svg" width="30" height="30" viewBox="0 0 30 30">
	<title>
		edit user page
	</title>
	<path d="M6 4.5c-1.66 0-3 1.34-3 3V27c0 1.66 1.34 3 3 3h13.5c1.66 0 3-1.34 3-3V7.5c0-1.66-1.34-3-3-3zm7 6.84A3.33 3.33 0 1 1 13 18a3.33 3.33 0 0 1 0-6.66zM13 19c3.94 0 6 2.34 6 3.68v.66H7v-.66C7 21.33 9.06 19 13 19z"/>
	<path d="M10.5 0a3 3 0 0 0-3 3H21a3 3 0 0 1 3 3v18a3 3 0 0 0 3-3V3a3 3 0 0 0-3-3z"/>
</svg>
